public/assets/img/casestudies/borgatta/portfolio_poster.svg

<svg fill="none" height="558" viewBox="0 0 558 558" width="558" xmlns="http://www.w3.org/2000/svg"><path clip-rule="evenodd" d="m337.316 79.283c.132 6.5228 0 10.2703 0 10.2703v379.6137s.253 7.19-.291 18.986c2.408 27.391 10.006 50.642 21.286 69.847h199.689v-201.513c-23.077-12.254-50.516-20.887-80.433-24.915l-.003-.27c-.525-.454-.537-24.827-.408-49.881-.152-26.673-.166-54.024.411-54.024l.019.008.003-.273c29.95-3.922 57.366-12.497 80.411-24.712v-202.42h-198.644c-12.043 20.2504-19.981 45.063-22.04 74.55zm-337.316 123.409v-202.692h199.228c11.595 19.3894 19.383 42.9615 21.756 70.8144-.146 3.2134-.232 6.0804-.279 8.548v10.1909 379.8827l-.022-.003s-.144 4.122.022 11.244v4.343c-2.01 28.787-9.624 53.069-21.189 72.98h-199.516v-201.688c23.0489-12.222 50.4728-20.8 80.4324-24.723.5645.283.5634-25.866.4217-52.033.1417-26.133.1428-52.283-.4217-52.141-29.9596-3.924-57.3835-12.502-80.4324-24.723z" fill="#db7339" fill-rule="evenodd"/></svg>

<svg width="558" height="558" viewBox="0 0 558 558" fill="none" xmlns="http://www.w3.org/2000/svg">
<path fill-rule="evenodd" clip-rule="evenodd" d="M337.316 79.283C337.448 85.8058 337.316 89.5533 337.316 89.5533V469.167C337.316 469.167 337.569 476.357 337.025 488.153C339.433 515.544 347.031 538.795 358.311 558H558V356.487C534.923 344.233 507.484 335.6 477.567 331.572L477.564 331.302C477.039 330.848 477.027 306.475 477.156 281.421C477.004 254.748 476.99 227.397 477.567 227.397L477.586 227.405L477.589 227.132C507.539 223.21 534.955 214.635 558 202.42V0L359.356 0C347.313 20.2504 339.375 45.063 337.316 74.55V79.283ZM0 202.692V0L199.228 0C210.823 19.3894 218.611 42.9615 220.984 70.8144C220.838 74.0278 220.752 76.8948 220.705 79.3624V89.5533V469.436L220.683 469.433C220.683 469.433 220.539 473.555 220.705 480.677V485.02C218.695 513.807 211.081 538.089 199.516 558H0V356.312C23.0489 344.09 50.4728 335.512 80.4324 331.589C80.9969 331.872 80.9958 305.723 80.8541 279.556C80.9958 253.423 80.9969 227.273 80.4324 227.415C50.4728 223.491 23.0489 214.913 0 202.692Z" fill="#DB7339"/>
</svg>
